images/3233080.svg

<?xml version="1.0" encoding="UTF-8"?>
<svg xmlns="http://www.w3.org/2000/svg" xmlns:xlink="http://www.w3.org/1999/xlink" width="300pt" height="300pt" viewBox="0 0 300 300" version="1.1">
<defs>
<g>
<symbol overflow="visible" id="glyph0-0">
<path style="stroke:none;" d="M 0.453125 1.59375 L 0.453125 -6.34375 L 4.953125 -6.34375 L 4.953125 1.59375 Z M 0.953125 1.09375 L 4.453125 1.09375 L 4.453125 -5.84375 L 0.953125 -5.84375 Z M 0.953125 1.09375 "/>
</symbol>
<symbol overflow="visible" id="glyph0-1">
<path style="stroke:none;" d="M 0.890625 -6.5625 L 2.078125 -6.5625 L 4.984375 -1.078125 L 4.984375 -6.5625 L 5.84375 -6.5625 L 5.84375 0 L 4.65625 0 L 1.75 -5.484375 L 1.75 0 L 0.890625 0 Z M 0.890625 -6.5625 "/>
</symbol>
<symbol overflow="visible" id="glyph0-2">
<path style="stroke:none;" d="M 3.546875 -5.953125 C 2.898438 -5.953125 2.382812 -5.710938 2 -5.234375 C 1.625 -4.753906 1.4375 -4.101562 1.4375 -3.28125 C 1.4375 -2.445312 1.625 -1.789062 2 -1.3125 C 2.382812 -0.832031 2.898438 -0.59375 3.546875 -0.59375 C 4.191406 -0.59375 4.703125 -0.832031 5.078125 -1.3125 C 5.453125 -1.789062 5.640625 -2.445312 5.640625 -3.28125 C 5.640625 -4.101562 5.453125 -4.753906 5.078125 -5.234375 C 4.703125 -5.710938 4.191406 -5.953125 3.546875 -5.953125 Z M 3.546875 -6.6875 C 4.460938 -6.6875 5.195312 -6.375 5.75 -5.75 C 6.300781 -5.132812 6.578125 -4.3125 6.578125 -3.28125 C 6.578125 -2.238281 6.300781 -1.410156 5.75 -0.796875 C 5.195312 -0.179688 4.460938 0.125 3.546875 0.125 C 2.617188 0.125 1.878906 -0.179688 1.328125 -0.796875 C 0.773438 -1.410156 0.5 -2.238281 0.5 -3.28125 C 0.5 -4.3125 0.773438 -5.132812 1.328125 -5.75 C 1.878906 -6.375 2.617188 -6.6875 3.546875 -6.6875 Z M 3.546875 -6.6875 "/>
</symbol>
</g>
</defs>
<g id="surface52477">
<rect x="0" y="0" width="300" height="300" style="fill:rgb(100%,100%,100%);fill-opacity:1;stroke:none;"/>
<path style="fill:none;stroke-width:1.2;stroke-linecap:butt;stroke-linejoin:miter;stroke:rgb(0%,0%,0%);stroke-opacity:1;stroke-miterlimit:10;" d="M 148.257812 178.453125 L 123.890625 182.222656 "/>
<path style="fill:none;stroke-width:1.2;stroke-linecap:butt;stroke-linejoin:miter;stroke:rgb(0%,0%,0%);stroke-opacity:1;stroke-miterlimit:10;" d="M 157.179688 155.46875 L 148.257812 178.453125 "/>
<path style="fill:none;stroke-width:1.2;stroke-linecap:butt;stroke-linejoin:miter;stroke:rgb(0%,0%,0%);stroke-opacity:1;stroke-miterlimit:10;" d="M 123.890625 182.222656 L 116.167969 172.609375 "/>
<path style="fill:none;stroke-width:1.2;stroke-linecap:butt;stroke-linejoin:miter;stroke:rgb(0%,0%,100%);stroke-opacity:1;stroke-miterlimit:10;" d="M 116.167969 172.609375 L 108.445312 163 "/>
<path style="fill:none;stroke-width:1.2;stroke-linecap:butt;stroke-linejoin:miter;stroke:rgb(0%,0%,100%);stroke-opacity:1;stroke-miterlimit:10;" d="M 108.445312 163 L 112.90625 151.507812 "/>
<path style="fill:none;stroke-width:1.2;stroke-linecap:butt;stroke-linejoin:miter;stroke:rgb(0%,0%,0%);stroke-opacity:1;stroke-miterlimit:10;" d="M 112.90625 151.507812 L 117.367188 140.011719 "/>
<path style="fill:none;stroke-width:1.2;stroke-linecap:butt;stroke-linejoin:miter;stroke:rgb(0%,0%,100%);stroke-opacity:1;stroke-miterlimit:10;" d="M 108.445312 163 L 96.261719 164.882812 "/>
<path style="fill:none;stroke-width:1.2;stroke-linecap:butt;stroke-linejoin:miter;stroke:rgb(0%,0%,0%);stroke-opacity:1;stroke-miterlimit:10;" d="M 96.261719 164.882812 L 84.074219 166.765625 "/>
<path style=" stroke:none;fill-rule:nonzero;fill:rgb(100%,100%,100%);fill-opacity:1;" d="M 105.445312 157.5 L 112.445312 157.5 L 112.445312 168.5 L 105.445312 168.5 Z M 105.445312 157.5 "/>
<g style="fill:rgb(0%,0%,100%);fill-opacity:1;">
  <use xlink:href="#glyph0-1" x="105.445312" y="166.163086"/>
</g>
<path style="fill:none;stroke-width:1.2;stroke-linecap:butt;stroke-linejoin:miter;stroke:rgb(0%,0%,0%);stroke-opacity:1;stroke-miterlimit:10;" d="M 117.367188 140.011719 L 141.734375 136.246094 "/>
<path style="fill:none;stroke-width:1.2;stroke-linecap:butt;stroke-linejoin:miter;stroke:rgb(0%,0%,0%);stroke-opacity:1;stroke-miterlimit:10;" d="M 141.734375 136.246094 L 157.179688 155.46875 "/>
<path style="fill:none;stroke-width:1.2;stroke-linecap:butt;stroke-linejoin:miter;stroke:rgb(0%,0%,0%);stroke-opacity:1;stroke-miterlimit:10;" d="M 157.179688 155.46875 L 177.074219 170.035156 "/>
<path style="fill:none;stroke-width:1.2;stroke-linecap:butt;stroke-linejoin:miter;stroke:rgb(0%,0%,0%);stroke-opacity:1;stroke-miterlimit:10;" d="M 171.75 135.574219 L 157.179688 155.46875 "/>
<path style="fill:none;stroke-width:1.2;stroke-linecap:butt;stroke-linejoin:miter;stroke:rgb(0%,0%,0%);stroke-opacity:1;stroke-miterlimit:10;" d="M 177.074219 170.035156 L 184.359375 160.089844 "/>
<path style="fill:none;stroke-width:1.2;stroke-linecap:butt;stroke-linejoin:miter;stroke:rgb(0%,0%,100%);stroke-opacity:1;stroke-miterlimit:10;" d="M 184.359375 160.089844 L 191.644531 150.140625 "/>
<path style="fill:none;stroke-width:1.2;stroke-linecap:butt;stroke-linejoin:miter;stroke:rgb(0%,0%,100%);stroke-opacity:1;stroke-miterlimit:10;" d="M 191.644531 150.140625 L 181.695312 142.855469 "/>
<path style="fill:none;stroke-width:1.2;stroke-linecap:butt;stroke-linejoin:miter;stroke:rgb(0%,0%,0%);stroke-opacity:1;stroke-miterlimit:10;" d="M 181.695312 142.855469 L 171.75 135.574219 "/>
<path style="fill:none;stroke-width:1.2;stroke-linecap:butt;stroke-linejoin:miter;stroke:rgb(0%,0%,100%);stroke-opacity:1;stroke-miterlimit:10;" d="M 191.644531 150.140625 L 203.828125 148.257812 "/>
<path style="fill:none;stroke-width:1.2;stroke-linecap:butt;stroke-linejoin:miter;stroke:rgb(0%,0%,0%);stroke-opacity:1;stroke-miterlimit:10;" d="M 203.828125 148.257812 L 216.011719 146.375 "/>
<path style=" stroke:none;fill-rule:nonzero;fill:rgb(100%,100%,100%);fill-opacity:1;" d="M 188.644531 144.640625 L 195.644531 144.640625 L 195.644531 155.640625 L 188.644531 155.640625 Z M 188.644531 144.640625 "/>
<g style="fill:rgb(0%,0%,100%);fill-opacity:1;">
  <use xlink:href="#glyph0-1" x="188.644531" y="153.303711"/>
</g>
<path style="fill:none;stroke-width:1.2;stroke-linecap:butt;stroke-linejoin:miter;stroke:rgb(0%,0%,0%);stroke-opacity:1;stroke-miterlimit:10;" d="M 216.011719 146.375 L 231.457031 165.59375 "/>
<path style="fill:none;stroke-width:1.2;stroke-linecap:butt;stroke-linejoin:miter;stroke:rgb(0%,0%,0%);stroke-opacity:1;stroke-miterlimit:10;" d="M 222.078125 144.664062 L 234.4375 160.039062 "/>
<path style="fill:none;stroke-width:1.2;stroke-linecap:butt;stroke-linejoin:miter;stroke:rgb(0%,0%,100%);stroke-opacity:1;stroke-miterlimit:10;" d="M 224.933594 123.386719 L 220.472656 134.882812 "/>
<path style="fill:none;stroke-width:1.2;stroke-linecap:butt;stroke-linejoin:miter;stroke:rgb(0%,0%,0%);stroke-opacity:1;stroke-miterlimit:10;" d="M 220.472656 134.882812 L 216.011719 146.375 "/>
<path style="fill:none;stroke-width:1.2;stroke-linecap:butt;stroke-linejoin:miter;stroke:rgb(0%,0%,0%);stroke-opacity:1;stroke-miterlimit:10;" d="M 231.457031 165.59375 L 255.828125 161.828125 "/>
<path style="fill:none;stroke-width:1.2;stroke-linecap:butt;stroke-linejoin:miter;stroke:rgb(0%,0%,0%);stroke-opacity:1;stroke-miterlimit:10;" d="M 255.828125 161.828125 L 264.75 138.84375 "/>
<path style="fill:none;stroke-width:1.2;stroke-linecap:butt;stroke-linejoin:miter;stroke:rgb(0%,0%,0%);stroke-opacity:1;stroke-miterlimit:10;" d="M 251.3125 157.429688 L 258.449219 139.042969 "/>
<path style="fill:none;stroke-width:1.2;stroke-linecap:butt;stroke-linejoin:miter;stroke:rgb(0%,0%,0%);stroke-opacity:1;stroke-miterlimit:10;" d="M 264.75 138.84375 L 249.304688 119.621094 "/>
<path style="fill:none;stroke-width:1.2;stroke-linecap:butt;stroke-linejoin:miter;stroke:rgb(0%,0%,0%);stroke-opacity:1;stroke-miterlimit:10;" d="M 249.304688 119.621094 L 237.121094 121.503906 "/>
<path style="fill:none;stroke-width:1.2;stroke-linecap:butt;stroke-linejoin:miter;stroke:rgb(0%,0%,100%);stroke-opacity:1;stroke-miterlimit:10;" d="M 237.121094 121.503906 L 224.933594 123.386719 "/>
<path style="fill:none;stroke-width:1.2;stroke-linecap:butt;stroke-linejoin:miter;stroke:rgb(0%,0%,0%);stroke-opacity:1;stroke-miterlimit:10;" d="M 247.753906 125.730469 L 238.003906 127.238281 "/>
<path style="fill:none;stroke-width:1.2;stroke-linecap:butt;stroke-linejoin:miter;stroke:rgb(0%,0%,100%);stroke-opacity:1;stroke-miterlimit:10;" d="M 238.003906 127.238281 L 228.257812 128.746094 "/>
<path style=" stroke:none;fill-rule:nonzero;fill:rgb(100%,100%,100%);fill-opacity:1;" d="M 221.933594 117.886719 L 228.933594 117.886719 L 228.933594 128.886719 L 221.933594 128.886719 Z M 221.933594 117.886719 "/>
<g style="fill:rgb(0%,0%,100%);fill-opacity:1;">
  <use xlink:href="#glyph0-1" x="221.933594" y="126.549805"/>
</g>
<path style="fill:none;stroke-width:1.2;stroke-linecap:butt;stroke-linejoin:miter;stroke:rgb(0%,0%,0%);stroke-opacity:1;stroke-miterlimit:10;" d="M 81.371094 165.71875 L 76.910156 177.210938 "/>
<path style="fill:none;stroke-width:1.2;stroke-linecap:butt;stroke-linejoin:miter;stroke:rgb(100%,0%,0%);stroke-opacity:1;stroke-miterlimit:10;" d="M 76.910156 177.210938 L 72.449219 188.703125 "/>
<path style="fill:none;stroke-width:1.2;stroke-linecap:butt;stroke-linejoin:miter;stroke:rgb(0%,0%,0%);stroke-opacity:1;stroke-miterlimit:10;" d="M 86.78125 167.816406 L 82.320312 179.308594 "/>
<path style="fill:none;stroke-width:1.2;stroke-linecap:butt;stroke-linejoin:miter;stroke:rgb(100%,0%,0%);stroke-opacity:1;stroke-miterlimit:10;" d="M 82.320312 179.308594 L 77.859375 190.804688 "/>
<path style="fill:none;stroke-width:1.2;stroke-linecap:butt;stroke-linejoin:miter;stroke:rgb(0%,0%,0%);stroke-opacity:1;stroke-miterlimit:10;" d="M 84.074219 166.765625 L 68.628906 147.546875 "/>
<path style=" stroke:none;fill-rule:nonzero;fill:rgb(100%,100%,100%);fill-opacity:1;" d="M 67.152344 184.253906 L 75.152344 184.253906 L 75.152344 195.253906 L 67.152344 195.253906 Z M 67.152344 184.253906 "/>
<g style="fill:rgb(100%,0%,0%);fill-opacity:1;">
  <use xlink:href="#glyph0-2" x="67.152344" y="192.916992"/>
</g>
<path style="fill:none;stroke-width:1.2;stroke-linecap:butt;stroke-linejoin:miter;stroke:rgb(0%,0%,0%);stroke-opacity:1;stroke-miterlimit:10;" d="M 68.628906 147.546875 L 44 148.746094 "/>
<path style="fill:none;stroke-width:1.2;stroke-linecap:butt;stroke-linejoin:miter;stroke:rgb(0%,0%,0%);stroke-opacity:1;stroke-miterlimit:10;" d="M 65.882812 141.871094 L 46.179688 142.832031 "/>
<path style="fill:none;stroke-width:1.2;stroke-linecap:butt;stroke-linejoin:miter;stroke:rgb(100%,0%,0%);stroke-opacity:1;stroke-miterlimit:10;" d="M 75.101562 123.753906 L 71.863281 135.648438 "/>
<path style="fill:none;stroke-width:1.2;stroke-linecap:butt;stroke-linejoin:miter;stroke:rgb(0%,0%,0%);stroke-opacity:1;stroke-miterlimit:10;" d="M 71.863281 135.648438 L 68.628906 147.546875 "/>
<path style="fill:none;stroke-width:1.2;stroke-linecap:butt;stroke-linejoin:miter;stroke:rgb(0%,0%,0%);stroke-opacity:1;stroke-miterlimit:10;" d="M 44 148.746094 L 35.25 125.691406 "/>
<path style="fill:none;stroke-width:1.2;stroke-linecap:butt;stroke-linejoin:miter;stroke:rgb(0%,0%,0%);stroke-opacity:1;stroke-miterlimit:10;" d="M 35.25 125.691406 L 54.46875 110.246094 "/>
<path style="fill:none;stroke-width:1.2;stroke-linecap:butt;stroke-linejoin:miter;stroke:rgb(0%,0%,0%);stroke-opacity:1;stroke-miterlimit:10;" d="M 40.804688 128.667969 L 56.183594 116.3125 "/>
<path style="fill:none;stroke-width:1.2;stroke-linecap:butt;stroke-linejoin:miter;stroke:rgb(0%,0%,0%);stroke-opacity:1;stroke-miterlimit:10;" d="M 54.46875 110.246094 L 64.785156 117 "/>
<path style="fill:none;stroke-width:1.2;stroke-linecap:butt;stroke-linejoin:miter;stroke:rgb(100%,0%,0%);stroke-opacity:1;stroke-miterlimit:10;" d="M 64.785156 117 L 75.101562 123.753906 "/>
<path style=" stroke:none;fill-rule:nonzero;fill:rgb(100%,100%,100%);fill-opacity:1;" d="M 71.101562 118.253906 L 79.101562 118.253906 L 79.101562 129.253906 L 71.101562 129.253906 Z M 71.101562 118.253906 "/>
<g style="fill:rgb(100%,0%,0%);fill-opacity:1;">
  <use xlink:href="#glyph0-2" x="71.101562" y="126.916992"/>
</g>
</g>
</svg>

<svg xmlns="http://www.w3.org/2000/svg" xmlns:xlink="http://www.w3.org/1999/xlink" width="300pt" height="300pt" viewBox="0 0 300 300"><defs><symbol overflow="visible"><path d="M.453 1.594v-7.938h4.5v7.938zm.5-.5h3.5v-6.938h-3.5zm0 0"/></symbol><symbol overflow="visible" id="a"><path d="M.89-6.563H2.08l2.906 5.485v-5.484h.86V0H4.656L1.75-5.484V0H.89zm0 0"/></symbol><symbol overflow="visible" id="b"><path d="M3.547-5.953c-.65 0-1.164.242-1.547.72-.375.48-.563 1.13-.563 1.952 0 .835.188 1.49.563 1.967.383.48.898.72 1.547.72.644 0 1.156-.24 1.53-.72.376-.476.564-1.132.564-1.968 0-.822-.187-1.474-.562-1.954-.375-.477-.887-.72-1.53-.72zm0-.734c.914 0 1.648.312 2.203.937.55.617.828 1.438.828 2.47 0 1.042-.277 1.87-.828 2.483-.555.617-1.29.922-2.203.922-.93 0-1.668-.305-2.22-.922C.774-1.41.5-2.237.5-3.28c0-1.033.273-1.853.828-2.47.55-.625 1.29-.938 2.22-.938zm0 0"/></symbol></defs><g><path fill="#fff" d="M0 0h300v300H0z"/><path d="M148.258 178.453l-24.367 3.77M157.18 155.47l-8.922 22.983M123.89 182.223l-7.722-9.614" stroke-width="1.2" stroke="#000" stroke-miterlimit="10" fill="none"/><path d="M116.168 172.61l-7.723-9.61M108.445 163l4.46-11.492" stroke-width="1.2" stroke="#00f" stroke-miterlimit="10" fill="none"/><path d="M112.906 151.508l4.46-11.496" stroke-width="1.2" stroke="#000" stroke-miterlimit="10" fill="none"/><path d="M108.445 163l-12.183 1.883" stroke-width="1.2" stroke="#00f" stroke-miterlimit="10" fill="none"/><path d="M96.262 164.883l-12.188 1.883" stroke-width="1.2" stroke="#000" stroke-miterlimit="10" fill="none"/><path d="M105.445 157.5h7v11h-7zm0 0" fill="#fff"/><use xlink:href="#a" x="105.445" y="166.163" fill="#00f"/><path d="M117.367 140.012l24.367-3.766M141.734 136.246l15.446 19.223M157.18 155.47l19.894 14.565M171.75 135.574l-14.57 19.895M177.074 170.035l7.285-9.945" stroke-width="1.2" stroke="#000" stroke-miterlimit="10" fill="none"/><path d="M184.36 160.09l7.285-9.95M191.645 150.14l-9.95-7.285" stroke-width="1.2" stroke="#00f" stroke-miterlimit="10" fill="none"/><path d="M181.695 142.855l-9.945-7.28" stroke-width="1.2" stroke="#000" stroke-miterlimit="10" fill="none"/><path d="M191.645 150.14l12.183-1.882" stroke-width="1.2" stroke="#00f" stroke-miterlimit="10" fill="none"/><path d="M203.828 148.258l12.184-1.883" stroke-width="1.2" stroke="#000" stroke-miterlimit="10" fill="none"/><path d="M188.645 144.64h7v11h-7zm0 0" fill="#fff"/><use xlink:href="#a" x="188.645" y="153.304" fill="#00f"/><path d="M216.012 146.375l15.445 19.22M222.078 144.664l12.36 15.375" stroke-width="1.2" stroke="#000" stroke-miterlimit="10" fill="none"/><path d="M224.934 123.387l-4.46 11.496" stroke-width="1.2" stroke="#00f" stroke-miterlimit="10" fill="none"/><path d="M220.473 134.883l-4.46 11.492M231.457 165.594l24.37-3.766M255.828 161.828l8.922-22.984M251.313 157.43l7.136-18.387M264.75 138.844l-15.445-19.223M249.305 119.62l-12.184 1.884" stroke-width="1.2" stroke="#000" stroke-miterlimit="10" fill="none"/><path d="M237.12 121.504l-12.186 1.883" stroke-width="1.2" stroke="#00f" stroke-miterlimit="10" fill="none"/><path d="M247.754 125.73l-9.75 1.508" stroke-width="1.2" stroke="#000" stroke-miterlimit="10" fill="none"/><path d="M238.004 127.238l-9.746 1.508" stroke-width="1.2" stroke="#00f" stroke-miterlimit="10" fill="none"/><path d="M221.934 117.887h7v11h-7zm0 0" fill="#fff"/><use xlink:href="#a" x="221.934" y="126.55" fill="#00f"/><path d="M81.37 165.72l-4.46 11.49" stroke-width="1.2" stroke="#000" stroke-miterlimit="10" fill="none"/><path d="M76.91 177.21l-4.46 11.493" stroke-width="1.2" stroke="#f00" stroke-miterlimit="10" fill="none"/><path d="M86.78 167.816l-4.46 11.493" stroke-width="1.2" stroke="#000" stroke-miterlimit="10" fill="none"/><path d="M82.32 179.31l-4.46 11.495" stroke-width="1.2" stroke="#f00" stroke-miterlimit="10" fill="none"/><path d="M84.074 166.766l-15.445-19.22" stroke-width="1.2" stroke="#000" stroke-miterlimit="10" fill="none"/><path d="M67.152 184.254h8v11h-8zm0 0" fill="#fff"/><use xlink:href="#b" x="67.152" y="192.917" fill="#f00"/><path d="M68.63 147.547l-24.63 1.2M65.883 141.87l-19.703.962" stroke-width="1.2" stroke="#000" stroke-miterlimit="10" fill="none"/><path d="M75.102 123.754l-3.24 11.894" stroke-width="1.2" stroke="#f00" stroke-miterlimit="10" fill="none"/><path d="M71.863 135.648l-3.234 11.9M44 148.746l-8.75-23.055M35.25 125.69l19.22-15.444M40.805 128.668l15.38-12.356M54.47 110.246L64.784 117" stroke-width="1.2" stroke="#000" stroke-miterlimit="10" fill="none"/><path d="M64.785 117l10.317 6.754" stroke-width="1.2" stroke="#f00" stroke-miterlimit="10" fill="none"/><path d="M71.102 118.254h8v11h-8zm0 0" fill="#fff"/><use xlink:href="#b" x="71.102" y="126.917" fill="#f00"/></g></svg>
